src/actions/22/xml-node-duplicate.svg

<svg version="1.1" viewBox="0 0 22 22" xmlns="http://www.w3.org/2000/svg">
 <defs>
  <style id="current-color-scheme" type="text/css">.ColorScheme-Text {
        color:#363636;
      }</style>
 </defs>
 <path class="ColorScheme-Text" d="m8 20c-1.662 0-3-1.338-3-3v-10c0-1.662 1.338-3 3-3h8c1.662 0 3 1.338 3 3v9l-4 4zm0-1h6v-2c0-1.108 0.892-2 2-2h2v-8c0-1.108-0.892-2-2-2h-8c-1.108 0-2 0.892-2 2v10c0 1.108 0.892 2 2 2z" fill="currentColor"/>
 <path class="ColorScheme-Text" d="m6 2c-1.662 0-3 1.338-3 3v10c0 1.3551 0.89551 2.4829 2.125 2.8574-0.080326-0.27154-0.125-0.55915-0.125-0.85742v-0.27539c-0.5958-0.34556-1-0.98355-1-1.7246v-10c0-1.108 0.892-2 2-2h8c0.74107 0 1.379 0.4042 1.7246 1h0.27539c0.29827 0 0.58588 0.044674 0.85742 0.125-0.37457-1.2295-1.5023-2.125-2.8574-2.125h-8zm12.816 3.9707c0.01 0.027373 0.02012 0.054288 0.0293 0.082031-0.0093-0.027724-0.01924-0.054687-0.0293-0.082031zm0.07031 0.21875c0.01237 0.044427 0.0248 0.08952 0.03516 0.13477-0.01049-0.045432-0.02262-0.090182-0.03516-0.13477zm0.06055 0.25781c0.01215 0.065592 0.02146 0.13217 0.0293 0.19922-0.0079-0.066981-0.01706-0.13374-0.0293-0.19922zm0.03711 0.25977c0.0093 0.096729 0.01563 0.19371 0.01563 0.29297 0-0.099202-0.0062-0.19641-0.01563-0.29297zm-12.014 13.109c0.027344 0.01006 0.054308 0.02003 0.082031 0.0293-0.027743-0.0092-0.054659-0.01934-0.082031-0.0293zm0.21875 0.07031c0.044582 0.01254 0.089334 0.02467 0.13477 0.03516-0.045246-0.01036-0.090338-0.02279-0.13477-0.03516zm0.25781 0.06055c0.065478 0.01223 0.13224 0.02141 0.19922 0.0293-0.067044-0.0078-0.13363-0.01714-0.19922-0.0293zm0.25977 0.03711c0.096557 0.0094 0.19377 0.01563 0.29297 0.01563-0.099256 0-0.19624-0.0063-0.29297-0.01563z" fill="currentColor"/>
</svg>

<svg xmlns="http://www.w3.org/2000/svg" viewBox="0 0 22 22">
    <defs>
        <style id="current-color-scheme" type="text/css">
            .ColorScheme-Text{color:#050505;opacity:.7}
        </style>
    </defs>
    <path fill="currentColor" d="M8 20c-1.662 0-3-1.338-3-3V7c0-1.662 1.338-3 3-3h8c1.662 0 3 1.338 3 3v9l-4 4zm0-1h6v-2c0-1.108.892-2 2-2h2V7c0-1.108-.892-2-2-2H8c-1.108 0-2 .892-2 2v10c0 1.108.892 2 2 2z" class="ColorScheme-Text"/>
    <path fill="currentColor" d="M6 2C4.338 2 3 3.338 3 5v10c0 1.355.896 2.483 2.125 2.857A3.018 3.018 0 0 1 5 17v-.275A1.99 1.99 0 0 1 4 15V5c0-1.108.892-2 2-2h8a1.99 1.99 0 0 1 1.725 1H16c.298 0 .586.045.857.125A2.984 2.984 0 0 0 14 2H6zm12.816 3.97.03.083-.03-.082zm.07.22zm.06.257zm.038.26zM6.97 19.816l.082.03-.082-.03zm.219.07zm.258.06zm.26.038z" class="ColorScheme-Text"/>
</svg>
